X:36
M:6/4
L:1/4
K:Eb
E/G/ | B2 B c2 B | (G3/2 E/) G/B/ F2 F/G/ | A2 F (E3/2 F/) G/A/ | B2 D E2 G/A/ | (B3/2 G/) c/B/ B2 c | (B3/2 F/) A G2 E/F/ | (G3/2 A/) G (F3/2 G/) F | E3- E2 E/G/ | B2 B c2 B | (G3/2 E/) G/B/ F2 F/G/ | A2 F (E3/2 F/) G/A/ | B2 D E2 G/A/ | (B3/2 G/) c/B/ B2 c | (B3/2 F/) A G2 E/F/ | (G3/2 A/) G (F3/2 G/) F | E3- E2 E/G/ | c2 c c2 B | (G3/2 E/) G/B/ F2 F/G/ | A2 F (E3/2 F/) G/A/ | B2 D E2 G/A/ | (B3/2 G/) c B2 c | (B3/2 F/) A G2 !sintro!E/F/ | (G3/2 A/) G (F3/2 G/) F | E3- E2 !eintro!|]
